X:1
T:Content ou non
T:Pierre Cler'eau
T:Source : La fleur des chansons à 3---Louvain---P.Phalèse---1574. Editor : André Vierendeels (21/08/18) Notes : Original clefs : C1, C2, C4 Original note values have been halved Editorial accidentals above the staff m 40 in Alto:" B" notated as "A" in original print
T:Content ou non
T:©
T:©
T:©
T:©
C:Pierre Cler'eau
Z:©
%%score [ 1 2 3 ]
L:1/8
Q:1/4=120
M:2/2
K:F
V:1 treble nm="Soprano" snm="S"
V:2 treble nm="Alto" snm="A"
V:3 treble-8 nm="Tenor" snm="T"
V:1
 D4 A2 A2 | G2 c2 B2 G2 | A2 F2 G4 | A8 | z2 G2 d4- | d2 d2 c2 A2 | c2 B2 A3 G/F/ | E2 G3 FED | %8
w: Con- tent ou|non, il faut que|ie l'en- du-|re,|con- tent|_ ou non, il|faut que ie _ _|_ l'en- * * *|
 E4 D4 | z4 z2 d2 | c2 B2 A4 | G2 D2 D2 D2 | E2 F2 G4 | F2 F2 A3 B | c2 d2 e4 | d4 z4 | %16
w: du- re,|puis-|que for- tu-|ne, si tres per-|ver- s'et du-|re, si tres per-|ver- s'et du-|re,|
 z2 e2 e2 d2 | c2 B2 A4 | G8 | z4 z2 G2 | ABcA B4 | A2 G3 FED | E2 E2 D2 A2 | BcdB c2 B2 | %24
w: si tres per-|ver- s'et du-|re,|tant|de lan- gueur si me|fait en- * * *|* du- rer, tant|de lan- gueur si me fait|
 A2 d4 c2 | d4 c2 B2 | A4 GFED | E2 A2 F3 G | AB c2 A2 d2 | d2 c2 d3 c/B/ | A2 A2 B2 G2 | %31
w: en _ du-|rer, si tant|de lan- * * *|gueur me fait _|_ _ en- du- rer,|dont souf- fri- * *|ray, es- pe- rant|
 A2 B2 A4 | z2 G2 G2 F2 | G3 A BcdB | c4 z2 d2 | d2 c2 d2 G2 | A4 B4 | A2 d4 c2 | d8- | d8- | d8- | %41
w: plus du- rer,|es- pe- rant|plus _ du- * * *|rer, dont|souf- fri- ray es-|pe- rant|plus du- *|rer.|_||
 d8 |] %42
w: |
V:2
 z8 | z4 G,4 | D2 D2 C2 C2 | F2 F2 E3 D/C/ | D2 E2 F2 G2- | GFED E2 A2- | A2 G2 F3 E/D/ | %7
w: |Con-|tent ou non, il|faut que ie _ _|_ l'en- du- *|||
 C2 E3 D D2- |"^#" D2 C2 D2 A2 | G2 F2 E2 DE |"^#" FD G4 F2 | G2 G2 F2 F2 | E2 D4 C2 | D2 D2 F3 G | %14
w: |* * re, puis-|que for- tu- * *||ne, si tres per-|ver- s'et du-|re, si tres per-|
 A2 B4 A2 | B2 B2 B3 A | G6 D2 |"^#" E2 G4 F2 |"^-natural" G2 D2 EFGE | F2 E2 D2 G2- | G2 F2 GFED | %21
w: ver- s'et du-|re, si tres per-|ver- s'et|du- * *|re, tant de lan gueur si|me fait en- du-||
 CD E4 D2- | D2 C2 D4 | z2 D2 EFGE | F2 G2 E2 E2 | DEFG A2 G2- | G2 F2 G2 D2 | D2 C2 D3 E | %28
w: |* * rer,|tant de lan- gueur si|me fait en- du-|rer, _ _ _ _ _|_ _ _ dont|souf- fri- ray, _|
 F2 G2 F3 G | A4 z2 G2 | G2 F2 G3 F/E/ | D8- | D4 z2 D2 | D2 C2 D2 G2 | G2 F2 G4 | F2 E2 D2 G2 | %36
w: _ _ _ _|* dont|souf- fri- ray, _ _|_|* dont|souf- fri- ray es-|pe- rant plus|du- * rer, dont|
 G2 F2 G2 D2 | F2 F2 E2 E2 | D2 B2 B2 A2 | G2 A4 G2- | G2 F2 B2 B2 | A8 |] %42
w: souf- fri- ray es-|pe- rant plus du-|rer, dont souf- fri-|ray es- pe-|* rant plus du-|rer.|
V:3
 z8 | z8 | z8 | D4 A2 A2 | G2 c2 B2 G2 | B2 B2 A3 G | F2 G2 DEFG | A2 G2 B4 | A4 D4 | z2 d2 c2 B2 | %10
w: |||Con- tent ou|non, il faut que|ie l'en- du- *|||* re,|puis- que for-|
 A2 G2 d4 | G2 G2 B3 A | G2 F2 E4 | D2 z d d2 d2 | c2 B2 c4 |"^b" B4 z2 e2 |"^b" e3 d c2 B2 | %17
w: tu- * *|ne, si tres per-|ver- s'et du-|re, si tres per-|ver- s'et du-|re, si|tres per- ver- s'et|
"^-natural" A2 G2 d4 | G4 z2 G2 | ABcA B2 c2 | A2 A2 G2 G2 | ABcA B4 | A4 D2 D2 | G4 z4 | %24
w: du- * *|re, tant|de lan- gueur si me fait|en- du- rer, tant|de lan- gueur si me|fait en- du-|rer,|
 z2 G2 ABcA | B3 A F2 G2 | d4 G2 B2 | A4 z2 d2 | d2 c2 d3 c | A2 A2 B2 G2 | d2 d2 G4 | %31
w: tant de lan- gueur si|me _ _ fait|en du- *|rer, dont|souf- fri- ray _|_ es- pe- rant|plus du- rer,|
 z2 G2 G2 F2 | G3 F D2 D2 |"^#" E2 C2 G4 | A4 G3 A | B2 c2 G2 G2 | d2 d2 GABc | d2 d2 A4 | %38
w: dont souf- fri-|ray _ _ dont|souf- fri- ray,|es- pe- rant|plus du- rer, es-|pe- rant plus _ _ _|_ du- rer,|
 z2 G2 G2 F2 | G2 d2 B2 G2 | d4 G4 | d8 |] %42
w: dont souf- fri-|ray es- pe- rant|plus du-|rer|

